icon-svg/fan-blade.svg

<svg xmlns="http://www.w3.org/2000/svg" fill="#44739e" viewBox="0 0 24 24"><path d="M12 9.7c-2.0492 0-3.0751 2.4774-1.6263 3.9263C11.8226 15.075 14.3 14.0493 14.3 12c.0028-1.2714-1.0286-2.3028-2.3-2.3m0 4.425c-1.899 0-2.8485-2.2968-1.5043-3.6378S14.1345 10.101 14.13 12c0 1.1762-.9538 2.1296-2.13 2.129zm6.817 1.845-.316-.86c-.482-.06-.91-.127-1.292-.2l-.6.624-.309-.834a4.42 4.42 0 0 1-2-1.062c1.6-.113 3.569-.873 7.207-3.792A9.78 9.78 0 0 0 19.676 6.5q-.4.48-.771.905l.167.938-.806-.227q-.411.443-.788.812l.152.852-.825-.231a5.1 5.1 0 0 1-2.282 1.293c.7-1.5 1.063-3.248.343-8.038A7.84 7.84 0 0 0 12 2.253a7.6 7.6 0 0 0-1.611.187q.25.492.465.935l1.348.334-.822.81c.173.4.32.764.442 1.1l.944.234-.656.647a4.865 4.865 0 0 1 .126 2.676c-.858-1.438-2.859-2.955-6.2-4.444a12.2 12.2 0 0 0-3.07 3.923c.493.031.949.065 1.372.1l.822-.871.267.985c.444.054.845.114 1.206.179l.726-.769.268.991a4.516 4.516 0 0 1 2.091 1.087c-1.6.112-3.57.87-7.214 3.791a9.75 9.75 0 0 0 1.822 3.346c.312-.376.611-.725.9-1.051l-.334-.91.964.215q.481-.513.918-.924l-.285-.777.931.207a4.755 4.755 0 0 1 2.061-1.11c-.7 1.508-1.067 3.252-.341 8.051a7.83 7.83 0 0 0 2.86.551 7.58 7.58 0 0 0 1.61-.187 45 45 0 0 1-.563-1.138l-1.015-.215.576-.745c-.243-.56-.432-1.052-.577-1.489l-.721-.152.492-.638a4.65 4.65 0 0 1-.044-2.372c.853 1.442 2.852 2.966 6.206 4.464a12.21 12.21 0 0 0 3.083-3.939c-.545-.034-1.046-.071-1.506-.113zm-6.784-1.4A2.567 2.567 0 1 1 14.6 12a2.566 2.566 0 0 1-2.567 2.566ZM12 11a1 1 0 1 0 1 1 1 1 0 0 0-1-1"/></svg>

<?xml version="1.0" encoding="UTF-8"?>
<svg width="24px" fill="#44739e" height="24px" viewBox="0 0 24 24" version="1.1" xmlns="http://www.w3.org/2000/svg" xmlns:xlink="http://www.w3.org/1999/xlink">
            <path d="M 12,9.7 C 9.9507763,9.7 8.9248927,12.177419 10.373737,13.626263 11.822581,15.075107 14.3,14.049224 14.3,12 14.302773,10.728598 13.271402,9.697227 12,9.7 Z m 0,4.425 c -1.898964,-5e-6 -2.8484673,-2.296801 -1.504284,-3.637829 C 11.8399,9.1461426 14.134458,10.101041 14.13,12 c 0,1.176205 -0.953795,2.129552 -2.13,2.129 z m 6.817,1.845 -0.316,-0.86 c -0.482,-0.06 -0.91,-0.127 -1.292,-0.2 l -0.6,0.624 L 16.3,14.7 a 4.419,4.419 0 0 1 -2,-1.062 c 1.6,-0.113 3.569,-0.873 7.207,-3.792 A 9.776,9.776 0 0 0 19.676,6.5 q -0.4,0.48 -0.771,0.905 L 19.072,8.343 18.266,8.116 Q 17.855,8.559 17.478,8.928 L 17.63,9.78 16.805,9.549 a 5.1,5.1 0 0 1 -2.282,1.293 c 0.7,-1.5 1.063,-3.248 0.343,-8.038 A 7.841,7.841 0 0 0 12,2.253 7.584,7.584 0 0 0 10.389,2.44 q 0.25,0.492 0.465,0.935 l 1.348,0.334 -0.822,0.81 c 0.173,0.4 0.32,0.764 0.442,1.1 L 12.766,5.853 12.11,6.5 a 4.865,4.865 0 0 1 0.126,2.676 C 11.378,7.738 9.377,6.221 6.036,4.732 a 12.2,12.2 0 0 0 -3.07,3.923 c 0.493,0.031 0.949,0.065 1.372,0.1 L 5.16,7.884 5.427,8.869 C 5.871,8.923 6.272,8.983 6.633,9.048 L 7.359,8.279 7.627,9.27 a 4.516,4.516 0 0 1 2.091,1.087 c -1.6,0.112 -3.57,0.87 -7.214,3.791 a 9.753,9.753 0 0 0 1.822,3.346 c 0.312,-0.376 0.611,-0.725 0.9,-1.051 l -0.334,-0.91 0.964,0.215 Q 6.337,15.235 6.774,14.824 L 6.489,14.047 7.42,14.254 a 4.755,4.755 0 0 1 2.061,-1.11 c -0.7,1.508 -1.067,3.252 -0.341,8.051 a 7.834,7.834 0 0 0 2.86,0.551 7.582,7.582 0 0 0 1.61,-0.187 c -0.207,-0.405 -0.394,-0.783 -0.563,-1.138 l -1.015,-0.215 0.576,-0.745 c -0.243,-0.56 -0.432,-1.052 -0.577,-1.489 L 11.31,17.82 11.802,17.182 A 4.65,4.65 0 0 1 11.758,14.81 c 0.853,1.442 2.852,2.966 6.206,4.464 v 0 a 12.214,12.214 0 0 0 3.083,-3.939 c -0.545,-0.034 -1.046,-0.071 -1.506,-0.113 z m -6.784,-1.4 A 2.567,2.567 0 1 1 14.6,12 2.566,2.566 0 0 1 12.033,14.566 Z M 12,11 a 1,1 0 1 0 1,1 1,1 0 0 0 -1,-1 z"/>

</svg>
